svgs/light/wave-pulse.svg

<svg xmlns="http://www.w3.org/2000/svg" viewBox="0 0 640 512"><!-- Font Awesome Pro 6.0.0-alpha2 by @fontawesome - https://fontawesome.com License - https://fontawesome.com/license (Commercial License) --><path d="M640 240C640 248.801 632.801 256 624 256H490.875L430.875 406C428.25 412.375 422.5 416.25 414.875 416C408 415.5 402.125 410.625 400.5 403.875L321.75 88.875L239.75 499.125C238.25 506.5 231.875 511.75 224.375 512H224C216.75 512 210.25 507 208.5 499.875L147.5 256H16C7.201 256 0 248.801 0 240S7.201 224 16 224H160C167.375 224 173.75 229 175.5 236.125L222.25 423.125L304.25 12.875C305.75 5.5 312.125 0.25 319.625 0C327.75 0.125 333.75 4.875 335.5 12.125L419.5 348.125L465.125 234C467.5 228 473.5 224 480 224H624C632.801 224 640 231.199 640 240Z"/></svg>

<svg xmlns="http://www.w3.org/2000/svg" viewBox="0 0 640 512"><!--! Font Awesome Pro 6.3.0 by @fontawesome - https://fontawesome.com License - https://fontawesome.com/license (Commercial License) Copyright 2023 Fonticons, Inc. --><path d="M640 240C640 248.8 632.8 256 624 256h-133.1l-60 150c-2.625 6.375-8.375 10.25-16 9.1C408 415.5 402.1 410.6 400.5 403.9l-78.75-315l-82 410.3C238.3 506.5 231.9 511.8 224.4 512H224c-7.25 0-13.75-5-15.5-12.12L147.5 256H16C7.201 256 0 248.8 0 240s7.201-15.1 16-15.1H160c7.375 0 13.75 4.993 15.5 12.12l46.75 187l82-410.3C305.8 5.5 312 .25 319.5 0c8.125 .125 14.25 4.875 16 12.12l84 336l45.63-114.1C467.5 228 473.5 224 480 224h144C632.8 224 640 231.2 640 240z"/></svg>
